build/img/icon-tip.svg

<svg width="24" height="24" viewBox="0 0 24 24" fill="none" xmlns="http://www.w3.org/2000/svg">
<g clip-path="url(#clip0)">
<path fill-rule="evenodd" clip-rule="evenodd" d="M12 2C6.47715 2 2 6.47715 2 12C2 17.5228 6.47715 22 12 22C17.5228 22 22 17.5228 22 12C22 6.47715 17.5228 2 12 2ZM0 12C0 5.37258 5.37258 0 12 0C18.6274 0 24 5.37258 24 12C24 18.6274 18.6274 24 12 24C5.37258 24 0 18.6274 0 12ZM12.4268 8C11.7002 8 11.1335 8.43078 10.9351 8.95437L10.5807 9.88947L8.71053 9.18074L9.06489 8.24563C9.57297 6.90491 10.9126 6 12.4268 6C14.3334 6 16 7.45774 16 9.4C16 10.1949 15.7961 10.9659 15.291 11.5941C14.7836 12.2252 14.0547 12.6096 13.1978 12.7807C13.1526 12.7897 13.1297 12.7994 13.1204 12.8045C13.1145 12.8127 13.0983 12.8389 13.0796 12.8988C13.0503 12.9923 13.0266 13.1293 13.0135 13.3283C13.0004 13.5271 13 13.7433 13 14V15H11V14L11 13.9355C10.9995 13.4849 10.9989 12.8505 11.171 12.3012C11.2686 11.9893 11.4346 11.6545 11.7244 11.3718C12.0205 11.0828 12.3906 10.9023 12.8064 10.8193C13.3111 10.7186 13.5811 10.5289 13.7323 10.3409C13.8858 10.15 14 9.85687 14 9.4C14 8.69129 13.3624 8 12.4268 8ZM13.1151 12.808C13.115 12.8079 13.1161 12.8069 13.1189 12.8053L13.1167 12.8071C13.1161 12.8075 13.1156 12.8078 13.1154 12.8079C13.1152 12.808 13.1151 12.808 13.1151 12.808ZM12 18C12.5523 18 13 17.5523 13 17C13 16.4477 12.5523 16 12 16C11.4477 16 11 16.4477 11 17C11 17.5523 11.4477 18 12 18Z" fill="currentColor"/>
</g>
<defs>
<clipPath id="clip0">
<rect width="24" height="24" fill="white"/>
</clipPath>
</defs>
</svg>

<svg width="24" height="24" viewBox="0 0 24 24" fill="none" xmlns="http://www.w3.org/2000/svg"><g clip-path="url(#clip0)"><path fill-rule="evenodd" clip-rule="evenodd" d="M12 2C6.477 2 2 6.477 2 12s4.477 10 10 10 10-4.477 10-10S17.523 2 12 2zM0 12C0 5.373 5.373 0 12 0s12 5.373 12 12-5.373 12-12 12S0 18.627 0 12zm12.427-4c-.727 0-1.293.43-1.492.954l-.354.935-1.87-.708.354-.935C9.573 6.905 10.913 6 12.427 6 14.333 6 16 7.458 16 9.4c0 .795-.204 1.566-.709 2.194-.507.631-1.236 1.016-2.093 1.187a.287.287 0 00-.078.024.344.344 0 00-.04.094 1.91 1.91 0 00-.066.43A10.51 10.51 0 0013 14v1h-2v-1.065c0-.45-.001-1.085.171-1.634.098-.312.264-.646.553-.93a2.122 2.122 0 011.082-.552c.505-.1.775-.29.926-.478.154-.191.268-.484.268-.941 0-.709-.638-1.4-1.573-1.4zm.688 4.808l.004-.003-.002.002h-.002v.001zM12 18a1 1 0 100-2 1 1 0 000 2z" fill="currentColor"/></g><defs><clipPath id="clip0"><path fill="#fff" d="M0 0h24v24H0z"/></clipPath></defs></svg>
